X:1
T:Tarry Trousers
M:4/4
L:1/4
K:F
 C| C C G G/4- E3/4| F D/2D/2D/2-C/2 B,3/4 C/4| C C E F/2G/2| BA/2-F/2 G3/2 G/2|\
 G c c G|B/2-A/2G/2-F/2 A B| C C GG/2-E/2|F/2-D/2 D C||

